X: 892
M: 6/8
L: 1/8
K: D
V: 1
|: A |\
d>ed Tf2g | aba Tfed | BcB Tc2d | efd TcBA |\
ded Tf2g | a2g Tfed | (B/c/d)B (c/d/e)c | d3 D2 :|
V: 2 clef=bass middle=d
z |\
d3 d3 | d3 d3 | e3 d3 | c3 A3 |\
d3 d3 | d3 d3 | A3 A3 | D3 D2 :|
|: z |\
d3 d3 | d3 d3 | g3 g2f | e3 a3 |\
d3 d3 | d3 d3 | g3 a3 | d3 d2 :|

